X:1
T:Iscah, LM
T:Iscah, LM
T:Lowell Mason, 1839
T:Public Domain Courtesy of the Cyber Hymnal™
C:Lowell Mason, 1839
Z:Public Domain
Z:Courtesy of the Cyber Hymnal™
%%score ( 1 2 ) ( 3 4 )
L:1/8
Q:1/4=125
M:3/4
K:C
V:1 treble 
V:2 treble 
V:3 bass 
V:4 bass 
V:1
 C2 E2 G2 | A4 A2 | D4 D2 | G4 z2 | [DG]2 [DG]2 [DF]2 | [CE]4 [EA]2 | [^FA]4 [DF]2 | [DG]4 z2 | %8
 E2 E2 E2 | [EA]4 [FB]2 | [EA]4 [E^G]2 | [EA]4 z2 | [^FA]2 [FA]2 [FA]2 | [GB]4 [Gc]2 | %14
 [Fc]4 [FB]2 | [Ec]6 |] %16
V:2
 C2 E2 G2 | A4 A2 | D4 D2 | G4 x2 | x6 | x6 | x6 | x6 | E2 E2 E2 | x6 | x6 | x6 | x6 | x6 | x6 | %15
 x6 |] %16
V:3
 C,2 E,2 G,2 | A,4 A,2 | D,4 D,2 | G,4 z2 | [G,B,]2 [G,B,]2 [B,,G,]2 | [C,G,]4 [A,,C]2 | %6
 [D,D]4 [D,C]2 | [G,,B,]4 z2 | E,2 E,2 E,2 | [A,,C]4 [D,D]2 | [E,C]4 [E,B,]2 | [A,,C]4 z2 | %12
 [D,D]2 [D,D]2 [D,D]2 | D4 [E,G,]2 | [D,A,]4 G,2 | [C,G,]6 |] %16
V:4
 C,2 E,2 G,2 | A,4 A,2 | D,4 D,2 | G,4 x2 | x6 | x6 | x6 | x6 | E,2 E,2 E,2 | x6 | x6 | x6 | x6 | %13
 (G,2 F,2) x2 | x4 G,2 | x6 |] %16

